public/assets/svgs/addons/ember-cli-netlify.svg

<svg height="58" viewBox="0 0 58 58" width="58" xmlns="http://www.w3.org/2000/svg"><g fill="none" fill-rule="evenodd"><path d="m56 58h-54c-1.105 0-2-.895-2-2v-54c0-1.105.895-2 2-2h54c1.105 0 2 .895 2 2v54c0 1.105-.895 2-2 2" fill="#e8edee"/><path d="m24 9h10v-4h-10z" fill="#0f81e0"/><path d="m9.9883 8h-5.988c-.553 0-1-.448-1-1s.447-1 1-1h5.988c.553 0 1 .448 1 1s-.447 1-1 1" fill="#dd342e"/><path d="m20 8h-6c-.553 0-1-.448-1-1s.447-1 1-1h6c.553 0 1 .448 1 1s-.447 1-1 1" fill="#ecba16"/><path d="m43.9883 8h-5.988c-.553 0-1-.448-1-1s.447-1 1-1h5.988c.553 0 1 .448 1 1s-.447 1-1 1" fill="#42b05c"/><path d="m54 8h-6c-.553 0-1-.448-1-1s.447-1 1-1h6c.553 0 1 .448 1 1s-.447 1-1 1" fill="#7383bf"/><path d="m4 30h50v-16h-50z" fill="#ed7161"/><path d="m12 36h-7c-.553 0-1-.448-1-1s.447-1 1-1h7c.553 0 1 .448 1 1s-.447 1-1 1" fill="#ecba16"/><path d="m31 36h-13c-.553 0-1-.448-1-1s.447-1 1-1h13c.553 0 1 .448 1 1s-.447 1-1 1" fill="#7383bf"/><path d="m54 36h-17c-.553 0-1-.448-1-1s.447-1 1-1h17c.553 0 1 .448 1 1s-.447 1-1 1" fill="#ecba16"/><path d="m18 42h-13c-.553 0-1-.448-1-1s.447-1 1-1h13c.553 0 1 .448 1 1s-.447 1-1 1" fill="#dd342e"/><path d="m28 42h-4c-.553 0-1-.448-1-1s.447-1 1-1h4c.553 0 1 .448 1 1s-.447 1-1 1" fill="#42b05c"/><path d="m12 48h-7c-.553 0-1-.448-1-1s.447-1 1-1h7c.553 0 1 .448 1 1s-.447 1-1 1" fill="#42b05c"/><path d="m28 48h-10c-.553 0-1-.448-1-1s.447-1 1-1h10c.553 0 1 .448 1 1s-.447 1-1 1" fill="#ecba16"/><path d="m18 54h-13c-.553 0-1-.448-1-1s.447-1 1-1h13c.553 0 1 .448 1 1s-.447 1-1 1" fill="#7383bf"/><path d="m28 54h-4c-.553 0-1-.448-1-1s.447-1 1-1h4c.553 0 1 .448 1 1s-.447 1-1 1" fill="#dd342e"/><path d="m34 53h20v-12h-20z" fill="#42b05c"/></g></svg>

<?xml version="1.0" encoding="UTF-8"?>
<svg width="58px" height="58px" viewBox="0 0 58 58" version="1.1" xmlns="http://www.w3.org/2000/svg" xmlns:xlink="http://www.w3.org/1999/xlink">
    <!-- Generator: Sketch 41.1 (35376) - http://www.bohemiancoding.com/sketch -->
    <title>10 -Web Grid- (development, coding, code, programming, flat)</title>
    <desc>Created with Sketch.</desc>
    <defs></defs>
    <g id="Page-1" stroke="none" stroke-width="1" fill="none" fill-rule="evenodd">
        <g id="Icons" transform="translate(-1201.000000, -350.000000)">
            <g id="10--Web-Grid--(development,-coding,-code,-programming,-flat)" transform="translate(1201.000000, 350.000000)">
                <path d="M56,58 L2,58 C0.895,58 0,57.105 0,56 L0,2 C0,0.895 0.895,0 2,0 L56,0 C57.105,0 58,0.895 58,2 L58,56 C58,57.105 57.105,58 56,58" id="Fill-261" fill="#E8EDEE"></path>
                <polygon id="Fill-262" fill="#0F81E0" points="24 9 34 9 34 5 24 5"></polygon>
                <path d="M9.9883,8 L4.0003,8 C3.4473,8 3.0003,7.552 3.0003,7 C3.0003,6.448 3.4473,6 4.0003,6 L9.9883,6 C10.5413,6 10.9883,6.448 10.9883,7 C10.9883,7.552 10.5413,8 9.9883,8" id="Fill-263" fill="#DD342E"></path>
                <path d="M20,8 L14,8 C13.447,8 13,7.552 13,7 C13,6.448 13.447,6 14,6 L20,6 C20.553,6 21,6.448 21,7 C21,7.552 20.553,8 20,8" id="Fill-264" fill="#ECBA16"></path>
                <path d="M43.9883,8 L38.0003,8 C37.4473,8 37.0003,7.552 37.0003,7 C37.0003,6.448 37.4473,6 38.0003,6 L43.9883,6 C44.5413,6 44.9883,6.448 44.9883,7 C44.9883,7.552 44.5413,8 43.9883,8" id="Fill-265" fill="#42B05C"></path>
                <path d="M54,8 L48,8 C47.447,8 47,7.552 47,7 C47,6.448 47.447,6 48,6 L54,6 C54.553,6 55,6.448 55,7 C55,7.552 54.553,8 54,8" id="Fill-266" fill="#7383BF"></path>
                <polygon id="Fill-267" fill="#ED7161" points="4 30 54 30 54 14 4 14"></polygon>
                <path d="M12,36 L5,36 C4.447,36 4,35.552 4,35 C4,34.448 4.447,34 5,34 L12,34 C12.553,34 13,34.448 13,35 C13,35.552 12.553,36 12,36" id="Fill-268" fill="#ECBA16"></path>
                <path d="M31,36 L18,36 C17.447,36 17,35.552 17,35 C17,34.448 17.447,34 18,34 L31,34 C31.553,34 32,34.448 32,35 C32,35.552 31.553,36 31,36" id="Fill-269" fill="#7383BF"></path>
                <path d="M54,36 L37,36 C36.447,36 36,35.552 36,35 C36,34.448 36.447,34 37,34 L54,34 C54.553,34 55,34.448 55,35 C55,35.552 54.553,36 54,36" id="Fill-270" fill="#ECBA16"></path>
                <path d="M18,42 L5,42 C4.447,42 4,41.552 4,41 C4,40.448 4.447,40 5,40 L18,40 C18.553,40 19,40.448 19,41 C19,41.552 18.553,42 18,42" id="Fill-271" fill="#DD342E"></path>
                <path d="M28,42 L24,42 C23.447,42 23,41.552 23,41 C23,40.448 23.447,40 24,40 L28,40 C28.553,40 29,40.448 29,41 C29,41.552 28.553,42 28,42" id="Fill-272" fill="#42B05C"></path>
                <path d="M12,48 L5,48 C4.447,48 4,47.552 4,47 C4,46.448 4.447,46 5,46 L12,46 C12.553,46 13,46.448 13,47 C13,47.552 12.553,48 12,48" id="Fill-273" fill="#42B05C"></path>
                <path d="M28,48 L18,48 C17.447,48 17,47.552 17,47 C17,46.448 17.447,46 18,46 L28,46 C28.553,46 29,46.448 29,47 C29,47.552 28.553,48 28,48" id="Fill-274" fill="#ECBA16"></path>
                <path d="M18,54 L5,54 C4.447,54 4,53.552 4,53 C4,52.448 4.447,52 5,52 L18,52 C18.553,52 19,52.448 19,53 C19,53.552 18.553,54 18,54" id="Fill-275" fill="#7383BF"></path>
                <path d="M28,54 L24,54 C23.447,54 23,53.552 23,53 C23,52.448 23.447,52 24,52 L28,52 C28.553,52 29,52.448 29,53 C29,53.552 28.553,54 28,54" id="Fill-276" fill="#DD342E"></path>
                <polygon id="Fill-277" fill="#42B05C" points="34 53 54 53 54 41 34 41"></polygon>
            </g>
        </g>
    </g>
</svg>
